X:2063
T:Branle de Rat
R:Branle
O:France
M:4/4
K:G
B2B2 B2AB|c2B2 A4|A2A2 A2GA|G2A2 B2G2|\
B2B2 B2AB|c2B2 A4|d2d2 d2cc|B2A2 G4||\
M:6/8
B2G B2G|DEF E2D|B2G B2G|DEF G3:|


